T: Farewell To Cowdenbeath
M: 6/8
L: 1/8
K: Bmin
|:fBB BAB|gag f2e|fdd dcd|cAA cde|
fBB BAB|gag f2e|fBB GBB|cBc d2e:|
GBB BAB|cBc dce|GBB BAB|cBA aAA|
GBB BAB|cBc dce|GBB BAB|agf gfe|
GBB BAB|cBc dce|GBB BAB|cBA aAA|
GBB BAB|cBc dce|agf gfe|fec d3||
